src/img/check.svg

<svg width="32" height="32" viewBox="0 0 32 32" fill="none" xmlns="http://www.w3.org/2000/svg">
<rect width="32" height="32" rx="4" fill="#29829A"/>
<path d="M14.2956 22.6667C13.861 22.6667 13.4494 22.454 13.1856 22.0873L9.61606 17.1411C9.15151 16.4989 9.27239 15.5842 9.8858 15.097C10.5002 14.6078 11.3724 14.7366 11.8369 15.3799L14.1857 18.632L20.091 8.68721C20.4976 8.00411 21.3568 7.79457 22.0101 8.22099C22.6625 8.64635 22.8633 9.54737 22.4557 10.2326L15.4784 21.9773C15.2367 22.3869 14.8181 22.6426 14.3595 22.6646C14.3375 22.6667 14.3175 22.6667 14.2956 22.6667Z" fill="white"/>
</svg>

<svg width="32" height="32" viewBox="0 0 32 32" xmlns="http://www.w3.org/2000/svg" fill="none"><rect width="32" height="32" rx="4" fill="#29829A"/><path d="M14.296 22.667c-.435 0-.846-.213-1.11-.579l-3.57-4.946c-.465-.642-.344-1.557.27-2.044.614-.489 1.487-.36 1.951.283l2.349 3.252 5.905-9.945c.407-.683 1.266-.893 1.919-.466.652.425.853 1.326.446 2.012l-6.977 11.745c-.242.41-.66.665-1.119.687l-.064.002z" fill="#fff"/></svg>
